public/operators/nobg/fezbet.svg

<svg width="114" height="23" viewBox="0 0 114 23" fill="none" xmlns="http://www.w3.org/2000/svg">
<path d="M72.2506 6.20007C73.8877 6.20007 75.3204 6.56007 76.5891 7.24017C77.8579 7.91997 78.9222 8.92016 79.6181 10.2C80.3549 11.4801 80.7233 12.92 80.7233 14.6C80.7233 16.28 80.3549 17.72 79.6181 19.0001C78.9222 20.24 77.8579 21.2801 76.5891 21.9599C75.3204 22.64 73.8469 23 72.2506 23C71.1043 23 70.0403 22.7999 69.0988 22.4C68.1573 22.0001 67.3389 21.4001 66.7249 20.6399V22.76H63V0H66.9294V8.36007C67.5845 7.64007 68.4029 7.12017 69.2624 6.71997C70.122 6.40017 71.1454 6.20007 72.2506 6.20007ZM71.8002 19.6799C73.2329 19.6799 74.4197 19.1999 75.3612 18.2801C76.3027 17.36 76.7528 16.1201 76.7528 14.5601C76.7528 13.04 76.3027 11.8002 75.3612 10.8402C74.4608 9.92006 73.2737 9.44006 71.8002 9.44006C70.8587 9.44006 69.9992 9.64016 69.2624 10.08C68.5257 10.4802 67.9117 11.0802 67.4617 11.84C67.0113 12.5999 66.8066 13.52 66.8066 14.5199C66.8066 15.56 67.0113 16.4399 67.4617 17.2001C67.8709 17.96 68.4848 18.56 69.2624 19.0001C69.9992 19.4801 70.8587 19.6799 71.8002 19.6799ZM100.165 14.6399C100.165 14.9201 100.165 15.2801 100.083 15.7601H86.9857C87.2312 16.9601 87.8041 17.9201 88.7864 18.6401C89.7688 19.3199 90.9967 19.6799 92.4294 19.6799C94.2712 19.6799 95.7856 19.0799 96.9727 17.9201L99.0602 20.2799C98.3234 21.1601 97.3411 21.8399 96.1951 22.28C95.0488 22.7201 93.7393 22.9601 92.3066 22.9601C90.4647 22.9601 88.8684 22.6001 87.4357 21.8801C86.0442 21.1601 84.939 20.1599 84.1614 18.92C83.4247 17.6399 83.0152 16.1999 83.0152 14.5601C83.0152 12.9599 83.3836 11.52 84.1203 10.2801C84.8571 8.99996 85.9214 7.96017 87.2313 7.28007C88.5408 6.56007 90.0143 6.20007 91.6926 6.20007C93.3297 6.20007 94.7624 6.56007 96.0312 7.28007C97.3002 7.96017 98.3642 8.99996 99.0602 10.2402C99.7969 11.52 100.165 12.9599 100.165 14.6399ZM91.6926 9.23996C90.4239 9.23996 89.3596 9.59996 88.5 10.3602C87.6405 11.0802 87.1085 12.0401 86.9445 13.2401H96.4407C96.2768 12.0401 95.7448 11.0802 94.8852 10.3602C94.0665 9.64016 93.0025 9.23996 91.6926 9.23996ZM114 21.8399C113.55 22.1999 112.977 22.4801 112.322 22.6799C111.667 22.88 110.971 22.9601 110.234 22.9601C108.392 22.9601 106.96 22.4801 105.977 21.56C104.954 20.6399 104.463 19.2401 104.463 17.4401V9.56006H101.721V6.47997H104.463V2.75999H108.392V6.47997H112.895V9.56006H108.392V17.36C108.392 18.1601 108.597 18.7601 109.006 19.1999C109.416 19.6001 109.989 19.7999 110.725 19.7999C111.585 19.7999 112.322 19.5599 112.936 19.1201L114 21.8399Z" fill="white"/>
<path d="M7.33286 6.61276V10.3816H16.4078V15.9535H7.33286V23H0V1H17.6636V6.57159H7.33286V6.61276ZM38.0014 17.3872V22.9591H19.9729V1H37.6368V6.57159H27.1437V9.1526H36.3403V14.4787H27.1437V17.3464H38.0014V17.3872ZM60 17.2235V22.9591H40.0676V18.4116L49.9931 6.73567H40.3915V1H59.5138V5.54749L49.588 17.2235H60Z" fill="#FFDC26"/>
</svg>

<svg xmlns="http://www.w3.org/2000/svg" width="114" height="23" fill="none"><path fill="#fff" d="M72.25 6.2a9 9 0 0 1 4.34 1.04 7.36 7.36 0 0 1 3.03 2.96 8.6 8.6 0 0 1 1.1 4.4 8.6 8.6 0 0 1-1.1 4.4 7.61 7.61 0 0 1-3.03 2.96 9.13 9.13 0 0 1-7.5.44 6.1 6.1 0 0 1-2.37-1.76v2.12H63V0h3.93v8.36a7.22 7.22 0 0 1 2.33-1.64 8.63 8.63 0 0 1 3-.52Zm-.45 13.48a4.9 4.9 0 0 0 3.56-1.4 4.95 4.95 0 0 0 1.4-3.72 4.77 4.77 0 0 0-4.95-5.12 4.88 4.88 0 0 0-5 5.08c0 1.04.2 1.92.65 2.68.41.76 1.02 1.36 1.8 1.8.74.48 1.6.68 2.54.68Zm28.37-5.04c0 .28 0 .64-.09 1.12h-13.1c.25 1.2.82 2.16 1.8 2.88a6.29 6.29 0 0 0 3.65 1.04c1.84 0 3.36-.6 4.54-1.76l2.09 2.36a6.95 6.95 0 0 1-2.86 2c-1.15.44-2.46.68-3.9.68-1.84 0-3.43-.36-4.86-1.08a8.3 8.3 0 0 1-3.28-2.96 8.57 8.57 0 0 1-1.14-4.36c0-1.6.36-3.04 1.1-4.28a7.66 7.66 0 0 1 3.11-3A9.07 9.07 0 0 1 91.7 6.2a8.6 8.6 0 0 1 4.34 1.08 7.61 7.61 0 0 1 3.03 2.96 8.59 8.59 0 0 1 1.1 4.4Zm-8.48-5.4a4.63 4.63 0 0 0-4.75 4h9.5a4.4 4.4 0 0 0-1.55-2.88 4.68 4.68 0 0 0-3.2-1.12ZM114 21.84c-.45.36-1.02.64-1.68.84a7.1 7.1 0 0 1-2.09.28c-1.84 0-3.27-.48-4.25-1.4-1.03-.92-1.52-2.32-1.52-4.12V9.56h-2.74V6.48h2.74V2.76h3.93v3.72h4.5v3.08h-4.5v7.8c0 .8.2 1.4.62 1.84.4.4.98.6 1.71.6.86 0 1.6-.24 2.22-.68l1.06 2.72Z"/><path fill="#FFDC26" d="M7.33 6.61v3.77h9.08v5.57H7.33V23H0V1h17.66v5.57H7.33v.04ZM38 17.4v5.57H19.97V1h17.67v5.57h-10.5v2.58h9.2v5.33h-9.2v2.87H38v.04Zm22-.17v5.74H40.07V18.4l9.92-11.67h-9.6V1h19.12v4.55L49.6 17.22H60Z"/></svg>
